!!!OTL: 146. Der Edelmann im Habersack.
!!!ARE: Europa, Mitteleuropa, Deutschland
!!!SCT: E0146A
!!!TXL: @@DE
!!!YEM: Copyright 1995, estate of Helmut Schaffrath.
**kern	**text
*ICvox	*
!! Mixed meters:  6/8; 4/4
*M6/8	*
*k[b-e-]	*
*B-:	*
!LO:TX:a:t=Munter.	!
!LO:TX:a:t=Weckerlin II, S. 300.	!
{8f	Es
=1	=1
4b-	wohnt
8b-	ein
8a	Müt-
8a	-ler
8cc	in
=2	=2
4b-/	je-
8g	-nem
4.f}	Thal,
=3	=3
{4.ee-	[Lauf
4dd	Mül-
8ff	-ler
=4	=4
(4.cc	lauf!]
8cc)	.
8r}	.
{8ff	nicht
=5	=5
4cc	weit
8dd	da-
4cc	-von
8b-	ein
=6	=6
4a	E-
8g	-del-
4.f}	-mann.
=7	=7
*M4/4	*
*met(c|)	*
{4dd	[Lauf,
8dd	Mül-
8dd	-ler
4dd	lauf,
8dd	wie
8dd	die
=8	=8
4dd	Katʒ
8dd	auf
8dd	die
4dd}	Maus;
{4ff	Potʒ
=9	=9
8cc	Him-
8cc	-mel
8cc	an
8cc	der
4cc	Wand,
8b-/	Mül-
8b-/	-ler
=10	=10
4a	lauf,
4g	lauf,
4f}	lauf!
{4f	mein
=11	=11
4b-	lie-
4b-	-wer
4cc	Mül-
4cc	-ler
=12	=12
2.ff}	lauf,
{4ee-	mein
=13	=13
4dd	lie-
4dd	-wer
4cc	Mül-
4cc	-ler
=14	=14
2b-	lauf!]
4r	.
8r}	.
==	==
!!!AGN: erzaehlendes Volks - Lied, Scherz, Schwank, Ballade ?
!!!ONB: ESAC (Essen Associative Code) Database: ERK1
!!!AMT: irregular
!!!AIN: vox
!!!EED: Helmut Schaffrath
!!!EEV: 1.0
!!!GTL: Schwaenke in Liedform (scherzhafte Erzaehlungen, mitunter satirisch)
!!!URL-scan: https://rosdok.uni-rostock.de/mcrviewer/recordIdentifier/rosdok_ppn745146120/iview2/phys_0543.iview2?x=-725.3371323957147&y=-16.23323948541656&scale=0.4088357090269527&rotation=0&layout=singlePageLayout
!!!ENC: Anna Maria Matuszewska
!!!EEV: 2024/03/12
*-	*-
